X: 168
T: Magnificat Sexti toni
N: Derived from Rue2012-Magnificat_Sexti_toni.krn
C: Pierre de la Rue
%%abc-version 2.0
%%abcx-abcm2ps-target-version 5.9.1 (29 Sep 2008)
%%abc-creator hum2abc beta
%%abcx-conversion-date 2019/02/17 08:01:16
%%abc-edited-by Jesse Rodin
%%abc-edited-by Megan K. Eagen 2013/01/22
%%abcx-initial-encoding-date 2013/01/22/
%%humdrum-veritas 4142284658
%%humdrum-veritas-data 755937143
%%linebreak <none>
%%barnumbers 0
L: 1/4
M: 2/1
Q: 1/2=120
V: 1 clef=treble
V: 2 clef=treble
V: 3 clef=treble-8
V: 4 clef=treble-8
V: 5 clef=treble-8
V: 6 clef=bass
V: 7 clef=bass
K: C
[V:1] F6ED | 
[V:2] z8 | 
[V:3] z8 | 
[V:4] F8- | 
[V:5] z8 | 
[V:6] z8 | 
[V:7] z8 | 
[V:1] F3GA2D2- | 
[V:2] z8 | 
[V:3] z8 | 
[V:4] F8 | 
[V:5] z8 | 
[V:6] z8 | 
[V:7] z8 | 
[V:1] D2G4FE | 
[V:2] z8 | 
[V:3] _B6AG | 
[V:4] G8- | 
[V:5] z8 | 
[V:6] z8 | 
[V:7] z8 | 
[V:1] G3AB2E2 | 
[V:2] z8 | 
[V:3] _B3cd2G2 | 
[V:4] G8 | 
[V:5] z8 | 
[V:6] z8 | 
[V:7] z8 | 
[V:1] z2A4GF | 
[V:2] z8 | 
[V:3] z2c2d2f2- | 
[V:4] A8 | 
[V:5] z8 | 
[V:6] z8 | 
[V:7] F,6E,D, | 
[V:1] A3Bc2F2 | 
[V:2] z8 | 
[V:3] f2edc2d2- | 
[V:4] A4A4- | 
[V:5] z8 | 
[V:6] z8 | 
[V:7] F,3G,A,2D,2- | 
[V:1] A4A4- | 
[V:2] z8 | 
[V:3] d2cBA4 | 
[V:4] A2GFA3B | 
[V:5] z8 | 
[V:6] z8 | 
[V:7] D,2F,4E,D, | 
[V:1] A4A4 | 
[V:2] z8 | 
[V:3] z2d2c2d2- | 
[V:4] c2F2A4 | 
[V:5] z8 | 
[V:6] z8 | 
[V:7] F,3G,A,2D,2- | 
[V:1] F4F2E2- | 
[V:2] z8 | 
[V:3] d2c2c4- | 
[V:4] A4A4 | 
[V:5] z8 | 
[V:6] z8 | 
[V:7] D,2F,4C,2- | 
[V:1] E2E2F4 | 
[V:2] z8 | 
[V:3] c4F4 | 
[V:4] A8 | 
[V:5] z8 | 
[V:6] z8 | 
[V:7] C,2C,2D,4 | 
[V:1] G4E4 | 
[V:2] z8 | 
[V:3] z2c3de2 | 
[V:4] G4A4- | 
[V:5] z8 | 
[V:6] z8 | 
[V:7] E,4C,4 | 
[V:1] F4G4- | 
[V:2] z8 | 
[V:3] d8 | 
[V:4] A4B4 | 
[V:5] z8 | 
[V:6] z8 | 
[V:7] D,4G,,4- | 
[V:1] G4E4 | 
[V:2] z8 | 
[V:3] B4c4 | 
[V:4] G4A4- | 
[V:5] z8 | 
[V:6] z8 | 
[V:7] G,,4C,4 | 
[V:1] F4G4- | 
[V:2] z8 | 
[V:3] A4G4 | 
[V:4] A4B4 | 
[V:5] z8 | 
[V:6] z8 | 
[V:7] D,4G,,4 | 
[V:1] G2E2E4 | 
[V:2] z8 | 
[V:3] z4C4- | 
[V:4] G4A4- | 
[V:5] z8 | 
[V:6] z8 | 
[V:7] C,6B,,2 | 
[V:1] F4G4- | 
[V:2] z8 | 
[V:3] C4D4- | 
[V:4] A4B4 | 
[V:5] z8 | 
[V:6] z8 | 
[V:7] A,,4G,,4 | 
[V:1] G2FED4 | 
[V:2] z8 | 
[V:3] D4D4 | 
[V:4] G8 | 
[V:5] z8 | 
[V:6] z8 | 
[V:7] _B,,8 | 
[V:1] C8 | 
[V:2] z8 | 
[V:3] E4E2F2- | 
[V:4] A8 | 
[V:5] z8 | 
[V:6] z8 | 
[V:7] A,,6G,,F,, | 
[V:1] z8 | 
[V:2] z8 | 
[V:3] F2E2F2G2- | 
[V:4] z8 | 
[V:5] z8 | 
[V:6] z8 | 
[V:7] G,,4F,,2_B,,2- | 
[V:1] z8 | 
[V:2] z8 | 
[V:3] GFF4E2 | 
[V:4] z8 | 
[V:5] z8 | 
[V:6] z8 | 
[V:7] B,,A,,G,,F,,G,,4 | 
[V:1] z4C4- | 
[V:2] z8 | 
[V:3] F4F3G | 
[V:4] z8 | 
[V:5] z8 | 
[V:6] z8 | 
[V:7] F,,8 | 
[V:1] C2D2E2F2- | 
[V:2] z8 | 
[V:3] A2A4GF | 
[V:4] z8 | 
[V:5] z8 | 
[V:6] z8 | 
[V:7] z8 | 
[V:1] F2E2F2G2- | 
[V:2] z8 | 
[V:3] G4F2_B2- | 
[V:4] z8 | 
[V:5] z8 | 
[V:6] z8 | 
[V:7] z8 | 
[V:1] GFF4E2 | 
[V:2] z8 | 
[V:3] BAGFG4 | 
[V:4] z8 | 
[V:5] z8 | 
[V:6] z8 | 
[V:7] z8 | 
[V:1] F4F4 | 
[V:2] z8 | 
[V:3] F4c4 | 
[V:4] A4A4 | 
[V:5] z8 | 
[V:6] z8 | 
[V:7] F,4F,4 | 
[V:1] F4F4 | 
[V:2] z8 | 
[V:3] c4c4- | 
[V:4] A8- | 
[V:5] z8 | 
[V:6] z8 | 
[V:7] F,3G,A,2F,2 | 
[V:1] F3GA2F2 | 
[V:2] z8 | 
[V:3] c4f4 | 
[V:4] A8 | 
[V:5] z8 | 
[V:6] z8 | 
[V:7] A,3B,C4- | 
[V:1] A3Bc4- | 
[V:2] z8 | 
[V:3] f2f4ed | 
[V:4] F3GA2F2 | 
[V:5] z8 | 
[V:6] z8 | 
[V:7] C2F,2F,4- | 
[V:1] c4A2c2- | 
[V:2] z8 | 
[V:3] c8 | 
[V:4] A3Bc2F2 | 
[V:5] z8 | 
[V:6] z8 | 
[V:7] F,4F,,3G,, | 
[V:1] cBA4GF | 
[V:2] z8 | 
[V:3] A3Bc2d2 | 
[V:4] A8 | 
[V:5] z8 | 
[V:6] z8 | 
[V:7] A,,2F,,2A,,2B,,2 | 
[V:1] E8- | 
[V:2] z8 | 
[V:3] c8 | 
[V:4] G4z2c2- | 
[V:5] z8 | 
[V:6] z8 | 
[V:7] C,4z2A,2- | 
[V:1] E8- | 
[V:2] z8 | 
[V:3] z8 | 
[V:4] c2B2c2A2- | 
[V:5] z8 | 
[V:6] z8 | 
[V:7] A,2G,2A,2C2- | 
[V:1] E8 | 
[V:2] z8 | 
[V:3] z4z2c2- | 
[V:4] A2G2A2G2- | 
[V:5] z8 | 
[V:6] z8 | 
[V:7] C2B,2C2C,2 | 
[V:1] z4F4 | 
[V:2] z8 | 
[V:3] c2BAB4 | 
[V:4] G2FEF4 | 
[V:5] z8 | 
[V:6] z8 | 
[V:7] E,2F,2D,4 | 
[V:1] E3FG2A2- | 
[V:2] z8 | 
[V:3] c2e4c2 | 
[V:4] G4z4 | 
[V:5] z8 | 
[V:6] z8 | 
[V:7] C,8 | 
[V:1] AGc4B2 | 
[V:2] z8 | 
[V:3] e2f2d4 | 
[V:4] z8 | 
[V:5] z8 | 
[V:6] z8 | 
[V:7] z8 | 
[V:1] c6BA | 
[V:2] z8 | 
[V:3] c3BA2GF | 
[V:4] z8 | 
[V:5] z8 | 
[V:6] z8 | 
[V:7] z8 | 
[V:1] G6C2 | 
[V:2] z8 | 
[V:3] E3FG2A2- | 
[V:4] z8 | 
[V:5] z8 | 
[V:6] z8 | 
[V:7] z8 | 
[V:1] E3FD4 | 
[V:2] z8 | 
[V:3] AGc4B2 | 
[V:4] z8 | 
[V:5] z8 | 
[V:6] z8 | 
[V:7] z8 | 
[V:1] C4G4- | 
[V:2] z8 | 
[V:3] c4C4 | 
[V:4] z4z2G2 | 
[V:5] z8 | 
[V:6] z8 | 
[V:7] z8 | 
[V:1] G4F4 | 
[V:2] z8 | 
[V:3] z8 | 
[V:4] B2c2A4 | 
[V:5] z8 | 
[V:6] z8 | 
[V:7] z8 | 
[V:1] G4G2A2- | 
[V:2] z8 | 
[V:3] z2c4F2 | 
[V:4] G3FE2D2 | 
[V:5] z8 | 
[V:6] z8 | 
[V:7] z2C,2E,2F,2 | 
[V:1] A2GFE2G2 | 
[V:2] z8 | 
[V:3] A2B2c4- | 
[V:4] F4G2E2 | 
[V:5] z8 | 
[V:6] z8 | 
[V:7] D,4C,3B,, | 
[V:1] A2B2c2F2- | 
[V:2] z8 | 
[V:3] c2B2A3B | 
[V:4] F2G2E2A2- | 
[V:5] z8 | 
[V:6] z8 | 
[V:7] A,,2G,,2C,2D,2 | 
[V:1] F2E2F2A2 | 
[V:2] z8 | 
[V:3] c4z2c2 | 
[V:4] A2G4F2 | 
[V:5] z8 | 
[V:6] z8 | 
[V:7] C,4z2F,,2 | 
[V:1] G2E2F2G2 | 
[V:2] z8 | 
[V:3] e3dc2B2 | 
[V:4] E2G2A2B2 | 
[V:5] z8 | 
[V:6] z8 | 
[V:7] C,3B,,A,,2G,,2 | 
[V:1] E2A4G2- | 
[V:2] z8 | 
[V:3] A2c3BG2 | 
[V:4] c2F4E2 | 
[V:5] z8 | 
[V:6] z8 | 
[V:7] A,,4F,,2G,,2 | 
[V:1] G2F4E2 | 
[V:2] z8 | 
[V:3] c8- | 
[V:4] F2A2G4 | 
[V:5] z8 | 
[V:6] z8 | 
[V:7] A,,2F,,2C,4 | 
[V:1] F8 ||  
[V:2] z8 ||  
[V:3] c8 ||  
[V:4] F8 ||  
[V:5] z8 ||  
[V:6] z8 ||  
[V:7] F,,8 ||  
[V:1]  [K:C] [K:clef=treble][M:2/1]F3GABc2- | 
[V:2]  [K:C] [K:clef=treble][M:2/1]z8 | 
[V:3]  [K:C] [K:clef=treble][M:2/1]F8- | 
[V:4]  [K:C] [K:clef=treble-8][M:2/1]z8 | 
[V:5]  [K:C] [K:clef=treble-8][M:2/1]z8 | 
[V:6]  [K:C] [K:clef=bass][M:2/1]z8 | 
[V:7]  [K:C] [K:clef=bass][M:2/1]z8 | 
[V:1] c2BAB3c | 
[V:2] z8 | 
[V:3] F4G4 | 
[V:4] z8 | 
[V:5] z8 | 
[V:6] z8 | 
[V:7] z8 | 
[V:1] F2c3BA2- | 
[V:2] z8 | 
[V:3] A4A4- | 
[V:4] F3GABc2- | 
[V:5] z8 | 
[V:6] z8 | 
[V:7] z8 | 
[V:1] AGFED4 | 
[V:2] z8 | 
[V:3] A4G4 | 
[V:4] c2BAB3c | 
[V:5] z8 | 
[V:6] z8 | 
[V:7] z8 | 
[V:1] E4z2A2- | 
[V:2] z8 | 
[V:3] A8 | 
[V:4] A2c3BAG | 
[V:5] z8 | 
[V:6] z8 | 
[V:7] z8 | 
[V:1] A2G2F2E2- | 
[V:2] z8 | 
[V:3] z8 | 
[V:4] F2G2A4 | 
[V:5] z8 | 
[V:6] z8 | 
[V:7] z8 | 
[V:1] E2D2C2B,2- | 
[V:2] z8 | 
[V:3] z8 | 
[V:4] G2F2E4 | 
[V:5] z8 | 
[V:6] z8 | 
[V:7] z8 | 
[V:1] B,A,D4C2- | 
[V:2] z8 | 
[V:3] z8 | 
[V:4] D4F2E2 | 
[V:5] z8 | 
[V:6] z8 | 
[V:7] z8 | 
[V:1] C2F2E2A2- | 
[V:2] z8 | 
[V:3] A4A4 | 
[V:4] A3Bc3B | 
[V:5] z8 | 
[V:6] z8 | 
[V:7] z8 | 
[V:1] ABc3BAG | 
[V:2] z8 | 
[V:3] A8 | 
[V:4] AGF4F2- | 
[V:5] z8 | 
[V:6] z8 | 
[V:7] z8 | 
[V:1] F2G4^F2 | 
[V:2] z8 | 
[V:3] A8 | 
[V:4] FEDCD4 | 
[V:5] z8 | 
[V:6] z8 | 
[V:7] z8 | 
[V:1] G4z4 | 
[V:2] z8 | 
[V:3] G8 | 
[V:4] z2B4AG | 
[V:5] z8 | 
[V:6] z8 | 
[V:7] z8 | 
[V:1] z8 | 
[V:2] z8 | 
[V:3] z2B4AG | 
[V:4] A2G2D4 | 
[V:5] z8 | 
[V:6] z8 | 
[V:7] z8 | 
[V:1] z2B4AG | 
[V:2] z8 | 
[V:3] A2G2D4 | 
[V:4] z2G4FE | 
[V:5] z8 | 
[V:6] z8 | 
[V:7] z8 | 
[V:1] A2G4c2- | 
[V:2] z8 | 
[V:3] z2E4DC | 
[V:4] F2G2C4 | 
[V:5] z8 | 
[V:6] z8 | 
[V:7] z8 | 
[V:1] c2B2c3B | 
[V:2] z8 | 
[V:3] D4C4 | 
[V:4] z2G2A3G | 
[V:5] z8 | 
[V:6] z8 | 
[V:7] z8 | 
[V:1] A2G4F2- | 
[V:2] z8 | 
[V:3] z8 | 
[V:4] F2E2F2A2 | 
[V:5] z8 | 
[V:6] z8 | 
[V:7] z8 | 
[V:1] F2E2F2A2 | 
[V:2] z8 | 
[V:3] G4A4 | 
[V:4] G4z2F2 | 
[V:5] z8 | 
[V:6] z8 | 
[V:7] z8 | 
[V:1] G2F4E2 | 
[V:2] z8 | 
[V:3] B8 | 
[V:4] E2F2G4 | 
[V:5] z8 | 
[V:6] z8 | 
[V:7] z8 | 
[V:1] F4z2A2- | 
[V:2] z8 | 
[V:3] A8 | 
[V:4] F4D2F2- | 
[V:5] z8 | 
[V:6] z8 | 
[V:7] z8 | 
[V:1] A2G2F2c2- | 
[V:2] z8 | 
[V:3] z4z2A2- | 
[V:4] F2E2D2A2- | 
[V:5] z8 | 
[V:6] z8 | 
[V:7] z8 | 
[V:1] c2B2A2GF | 
[V:2] z8 | 
[V:3] A2G2F2c2- | 
[V:4] AGE2z2A2- | 
[V:5] z8 | 
[V:6] z8 | 
[V:7] z8 | 
[V:1] E4F4 | 
[V:2] z8 | 
[V:3] c2B2A2B2- | 
[V:4] A2G2F2d2- | 
[V:5] z8 | 
[V:6] z8 | 
[V:7] z8 | 
[V:1] F2E4D2 | 
[V:2] z8 | 
[V:3] B2A4^G2 | 
[V:4] d2c2B4 | 
[V:5] z8 | 
[V:6] z8 | 
[V:7] z8 | 
[V:1] E2C4F2- | 
[V:2] z8 | 
[V:3] A8 | 
[V:4] A4F4 | 
[V:5] z8 | 
[V:6] z8 | 
[V:7] z8 | 
[V:1] F2D4G2- | 
[V:2] z8 | 
[V:3] z8 | 
[V:4] _B4G4 | 
[V:5] z8 | 
[V:6] z8 | 
[V:7] z8 | 
[V:1] GFE4A2- | 
[V:2] z8 | 
[V:3] z8 | 
[V:4] c3BA3G | 
[V:5] z8 | 
[V:6] z8 | 
[V:7] z8 | 
[V:1] AGFED2E2- | 
[V:2] z8 | 
[V:3] A8 | 
[V:4] FED4C2 | 
[V:5] z8 | 
[V:6] z8 | 
[V:7] z8 | 
[V:1] E2D4^C2 | 
[V:2] z8 | 
[V:3] A4G4 | 
[V:4] D2F2E4 | 
[V:5] z8 | 
[V:6] z8 | 
[V:7] z8 | 
[V:1] D8 | 
[V:2] z8 | 
[V:3] F3GA2_B2- | 
[V:4] D4z2G2- | 
[V:5] z8 | 
[V:6] z8 | 
[V:7] z8 | 
[V:1] z8 | 
[V:2] z8 | 
[V:3] BAGFE3F | 
[V:4] GAB2c3B | 
[V:5] z8 | 
[V:6] z8 | 
[V:7] z8 | 
[V:1] z8 | 
[V:2] z8 | 
[V:3] G2A3GFE | 
[V:4] AGF3GA2 | 
[V:5] z8 | 
[V:6] z8 | 
[V:7] z8 | 
[V:1] F3GA2_B2- | 
[V:2] z8 | 
[V:3] D3EF2G2 | 
[V:4] _B4A2G2- | 
[V:5] z8 | 
[V:6] z8 | 
[V:7] z8 | 
[V:1] BAGFE3F | 
[V:2] z8 | 
[V:3] E2G3FED | 
[V:4] GFEDC4 | 
[V:5] z8 | 
[V:6] z8 | 
[V:7] z8 | 
[V:1] G2A3GFE | 
[V:2] z8 | 
[V:3] C4z4 | 
[V:4] z2F3GA2 | 
[V:5] z8 | 
[V:6] z8 | 
[V:7] z8 | 
[V:1] D4z4 | 
[V:2] z8 | 
[V:3] D3EF2G2- | 
[V:4] _B3AGFE2- | 
[V:5] z8 | 
[V:6] z8 | 
[V:7] z8 | 
[V:1] z8 | 
[V:2] z8 | 
[V:3] GFEDC4 | 
[V:4] E2A3Bc2 | 
[V:5] z8 | 
[V:6] z8 | 
[V:7] z8 | 
[V:1] z8 | 
[V:2] z8 | 
[V:3] F3GA2_B2- | 
[V:4] d3cBAG2- | 
[V:5] z8 | 
[V:6] z8 | 
[V:7] z8 | 
[V:1] z4G3A | 
[V:2] z8 | 
[V:3] BAGFE3F | 
[V:4] GAB2c3B | 
[V:5] z8 | 
[V:6] z8 | 
[V:7] z8 | 
[V:1] B2c3BAG | 
[V:2] z8 | 
[V:3] G2A3GFE | 
[V:4] AGF3GA2 | 
[V:5] z8 | 
[V:6] z8 | 
[V:7] z8 | 
[V:1] F2G4F2- | 
[V:2] z8 | 
[V:3] D4z4 | 
[V:4] _B2_B3AGF | 
[V:5] z8 | 
[V:6] z8 | 
[V:7] z8 | 
[V:1] F2E2F2c2- | 
[V:2] z8 | 
[V:3] z4z2A2- | 
[V:4] G4F4 | 
[V:5] z8 | 
[V:6] z8 | 
[V:7] z8 | 
[V:1] c2A2B2G2 | 
[V:2] z8 | 
[V:3] A2F2G2E2 | 
[V:4] z8 | 
[V:5] z8 | 
[V:6] z8 | 
[V:7] z8 | 
[V:1] A6F2 | 
[V:2] z8 | 
[V:3] F2E2C4 | 
[V:4] F2c4A2 | 
[V:5] z8 | 
[V:6] z8 | 
[V:7] z8 | 
[V:1] G2E2F2c2- | 
[V:2] z8 | 
[V:3] z4z2A2- | 
[V:4] B2G2A4 | 
[V:5] z8 | 
[V:6] z8 | 
[V:7] z8 | 
[V:1] c2A2B2G2 | 
[V:2] z8 | 
[V:3] A2F2G2E2 | 
[V:4] F4z4 | 
[V:5] z8 | 
[V:6] z8 | 
[V:7] z8 | 
[V:1] A6F2 | 
[V:2] z8 | 
[V:3] F2EDC2D2- | 
[V:4] F2c4A2 | 
[V:5] z8 | 
[V:6] z8 | 
[V:7] z8 | 
[V:1] G2F4E2 | 
[V:2] z8 | 
[V:3] D2C4_B,2 | 
[V:4] _BAGFG4 | 
[V:5] z8 | 
[V:6] z8 | 
[V:7] z8 | 
[V:1] F8 ||  
[V:2] z8 ||  
[V:3] C8 ||  
[V:4] F8 ||  
[V:5] z8 ||  
[V:6] z8 ||  
[V:7] z8 ||  
[V:1]  [K:C] [K:clef=treble][M:2/1]F4F2A2- | 
[V:2]  [K:C] [K:clef=treble][M:2/1]z8 | 
[V:3]  [K:C] [K:clef=treble][M:2/1]z8 | 
[V:4]  [K:C] [K:clef=treble-8][M:2/1]F8- | 
[V:5]  [K:C] [K:clef=treble-8][M:2/1]z8 | 
[V:6]  [K:C] [K:clef=bass][M:2/1]z8 | 
[V:7]  [K:C] [K:clef=bass][M:2/1]z8 | 
[V:1] ABc2A2c2 | 
[V:2] z8 | 
[V:3] z8 | 
[V:4] F8 | 
[V:5] z8 | 
[V:6] z8 | 
[V:7] z8 | 
[V:1] B2G2d4 | 
[V:2] z8 | 
[V:3] z8 | 
[V:4] G8 | 
[V:5] z8 | 
[V:6] z8 | 
[V:7] z8 | 
[V:1] c6A2- | 
[V:2] z8 | 
[V:3] C8- | 
[V:4] A8- | 
[V:5] z8 | 
[V:6] z8 | 
[V:7] F,,4F,,2A,,2- | 
[V:1] AGE4A2- | 
[V:2] z8 | 
[V:3] C8 | 
[V:4] A8 | 
[V:5] z8 | 
[V:6] z8 | 
[V:7] A,,B,,C,2A,,2C,2 | 
[V:1] A2G4F2 | 
[V:2] z8 | 
[V:3] D8 | 
[V:4] z8 | 
[V:5] z8 | 
[V:6] z8 | 
[V:7] B,,2G,,2D,4 | 
[V:1] G4C4 | 
[V:2] C4C2E2- | 
[V:3] E8- | 
[V:4] z8 | 
[V:5] z8 | 
[V:6] z8 | 
[V:7] C,4A,,4 | 
[V:1] z4C4 | 
[V:2] EFG2E2G2 | 
[V:3] E8 | 
[V:4] z8 | 
[V:5] z8 | 
[V:6] z8 | 
[V:7] z4E,4 | 
[V:1] D4D4 | 
[V:2] F2D2A4 | 
[V:3] z8 | 
[V:4] z8 | 
[V:5] z8 | 
[V:6] z8 | 
[V:7] F,8 | 
[V:1] E6C2 | 
[V:2] G4E4 | 
[V:3] z8 | 
[V:4] z4A4 | 
[V:5] z8 | 
[V:6] z8 | 
[V:7] E,4A,,4 | 
[V:1] C8 | 
[V:2] z4A4 | 
[V:3] z4E4 | 
[V:4] A4A4 | 
[V:5] z8 | 
[V:6] z8 | 
[V:7] z4A,,4 | 
[V:1] z4c4 | 
[V:2] A4A4- | 
[V:3] E4E4 | 
[V:4] A8 | 
[V:5] z8 | 
[V:6] z8 | 
[V:7] A,,4A,,4 | 
[V:1] c4c4 | 
[V:2] A2GFE4 | 
[V:3] E8 | 
[V:4] A8 | 
[V:5] z8 | 
[V:6] z8 | 
[V:7] A,,8 | 
[V:1] c2BAG4- | 
[V:2] E4G4- | 
[V:3] E8 | 
[V:4] G6A2 | 
[V:5] z8 | 
[V:6] z8 | 
[V:7] C,8 | 
[V:1] G4d4- | 
[V:2] G2FED4- | 
[V:3] D6E2 | 
[V:4] B8 | 
[V:5] z8 | 
[V:6] z8 | 
[V:7] G,,8 | 
[V:1] d2cBA4 | 
[V:2] D4D4 | 
[V:3] F8 | 
[V:4] A8 | 
[V:5] z8 | 
[V:6] z8 | 
[V:7] D,8 | 
[V:1] z2A2E2c2- | 
[V:2] C8- | 
[V:3] E8- | 
[V:4] A4G2A2- | 
[V:5] z8 | 
[V:6] z8 | 
[V:7] A,,3B,,C,2A,,2 | 
[V:1] cBA2G2A2 | 
[V:2] C8 | 
[V:3] E8 | 
[V:4] A2c4BA | 
[V:5] z8 | 
[V:6] z8 | 
[V:7] C,3D,E,2A,,2 | 
[V:1] E2c3BB2- | 
[V:2] z8 | 
[V:3] E4E4- | 
[V:4] G2A4G2 | 
[V:5] z8 | 
[V:6] z8 | 
[V:7] C,3D,E,4 | 
[V:1] B2A4^G2 | 
[V:2] z8 | 
[V:3] E4D4 | 
[V:4] A2c2B4 | 
[V:5] z8 | 
[V:6] z8 | 
[V:7] A,,4z4 | 
[V:1] A8- | 
[V:2] z8 | 
[V:3] E8 | 
[V:4] A8- | 
[V:5] z8 | 
[V:6] z8 | 
[V:7] z4A,,3B,, | 
[V:1] A8 | 
[V:2] z4A,3B, | 
[V:3] z8 | 
[V:4] A8 | 
[V:5] z8 | 
[V:6] z8 | 
[V:7] C,2D,4F,2 | 
[V:1] z8 | 
[V:2] C2D4F2 | 
[V:3] z8 | 
[V:4] z4A4 | 
[V:5] z8 | 
[V:6] z8 | 
[V:7] E,2D,2F,3G, | 
[V:1] z8 | 
[V:2] E2D2F3G | 
[V:3] z8 | 
[V:4] A4A4- | 
[V:5] z8 | 
[V:6] z8 | 
[V:7] A,2D,4C,B,, | 
[V:1] z8 | 
[V:2] A2D4CB, | 
[V:3] z8 | 
[V:4] A4A4 | 
[V:5] z8 | 
[V:6] z8 | 
[V:7] A,,2F,4E,D, | 
[V:1] z8 | 
[V:2] A,2D4C2 | 
[V:3] z8 | 
[V:4] A4A4- | 
[V:5] z8 | 
[V:6] z8 | 
[V:7] C,2D,2A,,4 | 
[V:1] z4E3F | 
[V:2] D2F2E4 | 
[V:3] z8 | 
[V:4] A4z2c2 | 
[V:5] z8 | 
[V:6] z8 | 
[V:7] z8 | 
[V:1] G2A4c2 | 
[V:2] z8 | 
[V:3] z4E4 | 
[V:4] B2A2c2BA | 
[V:5] z8 | 
[V:6] z8 | 
[V:7] z8 | 
[V:1] B2A2c3B | 
[V:2] z8 | 
[V:3] E4E4- | 
[V:4] G2A4GF | 
[V:5] z8 | 
[V:6] z8 | 
[V:7] z8 | 
[V:1] G2A4GF | 
[V:2] z4z2C2 | 
[V:3] E4E4 | 
[V:4] E2c4BA | 
[V:5] z8 | 
[V:6] z8 | 
[V:7] z8 | 
[V:1] E2A4^G2 | 
[V:2] B,2A,2B,4 | 
[V:3] E4E4- | 
[V:4] G2A2E4 | 
[V:5] z8 | 
[V:6] z8 | 
[V:7] z8 | 
[V:1] A8 | 
[V:2] A,4C3D | 
[V:3] E4E4 | 
[V:4] z8 | 
[V:5] z8 | 
[V:6] z8 | 
[V:7] A,,4A,,2C,2- | 
[V:1] z8 | 
[V:2] E2F2G4 | 
[V:3] E4C4 | 
[V:4] z8 | 
[V:5] z8 | 
[V:6] z8 | 
[V:7] C,2D,2E,4 | 
[V:1] A4A2A2- | 
[V:2] F6ED | 
[V:3] D8- | 
[V:4] A8 | 
[V:5] z8 | 
[V:6] z8 | 
[V:7] D,8- | 
[V:1] AGF4ED | 
[V:2] F3GA4- | 
[V:3] D8 | 
[V:4] A4A4- | 
[V:5] z8 | 
[V:6] z8 | 
[V:7] D,8 | 
[V:1] C8 | 
[V:2] A2GFE2A,2 | 
[V:3] E8- | 
[V:4] A4A4 | 
[V:5] z8 | 
[V:6] z8 | 
[V:7] A,,8 | 
[V:1] z4c4 | 
[V:2] A,8 | 
[V:3] E8 | 
[V:4] c6BA | 
[V:5] z8 | 
[V:6] z8 | 
[V:7] A,,4A,,4 | 
[V:1] c4c4 | 
[V:2] z4E4- | 
[V:3] E4C4 | 
[V:4] G8 | 
[V:5] z8 | 
[V:6] z8 | 
[V:7] C,6B,,A,, | 
[V:1] B4B4 | 
[V:2] E2F2G4 | 
[V:3] D4B,4 | 
[V:4] G4G4 | 
[V:5] z8 | 
[V:6] z8 | 
[V:7] G,,4G,,4 | 
[V:1] A2c3BAG | 
[V:2] C2F4E2 | 
[V:3] C8- | 
[V:4] A2F2G4 | 
[V:5] z8 | 
[V:6] z8 | 
[V:7] F,,4C,4 | 
[V:1] A2F4E2 | 
[V:2] F4z2G2 | 
[V:3] C8 | 
[V:4] z2F2G4 | 
[V:5] z8 | 
[V:6] z8 | 
[V:7] F,,4C,4 | 
[V:1] F2G2F2D2 | 
[V:2] A2E2A3G/F/ | 
[V:3] z2C4B,2 | 
[V:4] F2E2F4 | 
[V:5] z8 | 
[V:6] z8 | 
[V:7] F,,2C,2D,4 | 
[V:1] E3FD4 | 
[V:2] EDC4B,2 | 
[V:3] C4D4 | 
[V:4] G8 | 
[V:5] z8 | 
[V:6] z8 | 
[V:7] C,4z2G,,2 | 
[V:1] C4z4 | 
[V:2] C2G3FD2 | 
[V:3] E2C4B,2 | 
[V:4] z4z2F2 | 
[V:5] z8 | 
[V:6] z8 | 
[V:7] C,2E,2D,4 | 
[V:1] z2C2D4 | 
[V:2] E2G3FD2 | 
[V:3] C4z2B,2 | 
[V:4] G8 | 
[V:5] z8 | 
[V:6] z8 | 
[V:7] C,4G,4 | 
[V:1] E2G3AB2 | 
[V:2] C2E2D4 | 
[V:3] C4z2B,2 | 
[V:4] z8 | 
[V:5] z8 | 
[V:6] z8 | 
[V:7] E,2C,2G,4 | 
[V:1] G2c4B2 | 
[V:2] z2G4F2 | 
[V:3] C2E2D4 | 
[V:4] z8 | 
[V:5] z8 | 
[V:6] z8 | 
[V:7] C,4z4 | 
[V:1] c2A2G4 | 
[V:2] G2F2G4 | 
[V:3] C8- | 
[V:4] z2F4E2 | 
[V:5] z8 | 
[V:6] z8 | 
[V:7] z8 | 
[V:1] F4z4 | 
[V:2] A2F4E2 | 
[V:3] C8 | 
[V:4] F4G4 | 
[V:5] z8 | 
[V:6] z8 | 
[V:7] F,,4C,4 | 
[V:1] z2F2G4 | 
[V:2] F2A2G4 | 
[V:3] C8- | 
[V:4] A2F4E2 | 
[V:5] z8 | 
[V:6] z8 | 
[V:7] F,,4z2C,2 | 
[V:1] A2c3BG2 | 
[V:2] z2F2G4 | 
[V:3] C8- | 
[V:4] F4z2E2 | 
[V:5] z8 | 
[V:6] z8 | 
[V:7] A,,2F,,2C,4 | 
[V:1] A2F2G2c2- | 
[V:2] F2c3BG2 | 
[V:3] C8- | 
[V:4] F4z2E2 | 
[V:5] z8 | 
[V:6] z8 | 
[V:7] F,,4C,4 | 
[V:1] cBAFG4 | 
[V:2] A3G/F/EDE2 | 
[V:3] C8- | 
[V:4] F2A2G4 | 
[V:5] z8 | 
[V:6] z8 | 
[V:7] A,,2F,,2C,4 | 
[V:1] A8- | 
[V:2] F8- | 
[V:3] C8- | 
[V:4] F8- | 
[V:5] z8 | 
[V:6] z8 | 
[V:7] F,,8- | 
[V:1] A4F4 | 
[V:2] F8- | 
[V:3] C8- | 
[V:4] F8- | 
[V:5] z8 | 
[V:6] z8 | 
[V:7] F,,8- | 
[V:1] F8 & A8 ||  
[V:2] F8 ||  
[V:3] C8 ||  
[V:4] F8 ||  
[V:5] z8 ||  
[V:6] z8 ||  
[V:7] F,,8 ||  
[V:1]  [K:C] [K:clef=treble][M:2/1]z8 | 
[V:2]  [K:C] [K:clef=treble][M:2/1]z8 | 
[V:3]  [K:C] [K:clef=treble-8][M:2/1]c4c2d2- | 
[V:4]  [K:C] [K:clef=treble-8][M:2/1]F8 | 
[V:5]  [K:C] [K:clef=treble-8][M:2/1]z8 | 
[V:6]  [K:C] [K:clef=bass][M:2/1]z8 | 
[V:7]  [K:C] [K:clef=bass][M:2/1]z8 | 
[V:1] z8 | 
[V:2] z8 | 
[V:3] dcBAB4 | 
[V:4] G4G4 | 
[V:5] z8 | 
[V:6] z8 | 
[V:7] z8 | 
[V:1] z8 | 
[V:2] z8 | 
[V:3] A8 | 
[V:4] A3Bc2d2- | 
[V:5] z8 | 
[V:6] z8 | 
[V:7] F,,8 | 
[V:1] z8 | 
[V:2] z8 | 
[V:3] D4G3F/E/ | 
[V:4] dcBAB4 | 
[V:5] z8 | 
[V:6] z8 | 
[V:7] G,,4G,,4 | 
[V:1] C3DE2F2- | 
[V:2] z8 | 
[V:3] E6DC | 
[V:4] A8 | 
[V:5] z8 | 
[V:6] z8 | 
[V:7] A,,8 | 
[V:1] FEDCD4 | 
[V:2] z8 | 
[V:3] D4D4 | 
[V:4] F4G4 | 
[V:5] z8 | 
[V:6] z8 | 
[V:7] B,,8 | 
[V:1] C4z4 | 
[V:2] z8 | 
[V:3] E2A4_B2- | 
[V:4] A3GFEF2- | 
[V:5] z8 | 
[V:6] z8 | 
[V:7] A,,3B,,C,2D,2- | 
[V:1] z8 | 
[V:2] z8 | 
[V:3] BAGFG4 | 
[V:4] F2E4D2 | 
[V:5] z8 | 
[V:6] z8 | 
[V:7] D,C,B,,A,,B,,4 | 
[V:1] C3DE2F2- | 
[V:2] z8 | 
[V:3] A8 | 
[V:4] E4z4 | 
[V:5] z8 | 
[V:6] z8 | 
[V:7] A,,8 | 
[V:1] FEDCD4 | 
[V:2] z8 | 
[V:3] _B8 | 
[V:4] z8 | 
[V:5] z8 | 
[V:6] z8 | 
[V:7] z8 | 
[V:1] C6B,A, | 
[V:2] z8 | 
[V:3] z2A2c2d2 | 
[V:4] A8 | 
[V:5] z8 | 
[V:6] z8 | 
[V:7] A,,8- | 
[V:1] C2D2E2F2 | 
[V:2] z8 | 
[V:3] e2f2e2c2 | 
[V:4] A8 | 
[V:5] z8 | 
[V:6] z8 | 
[V:7] A,,8 | 
[V:1] G8- | 
[V:2] z8 | 
[V:3] d6G2 | 
[V:4] B8- | 
[V:5] z8 | 
[V:6] z8 | 
[V:7] G,,8- | 
[V:1] G8 | 
[V:2] z8 | 
[V:3] d2G4G2 | 
[V:4] B8 | 
[V:5] z8 | 
[V:6] z8 | 
[V:7] G,,8 | 
[V:1] C4z2A,2 | 
[V:2] z8 | 
[V:3] E2A2c2d2 | 
[V:4] A6GF | 
[V:5] z8 | 
[V:6] z8 | 
[V:7] A,,8- | 
[V:1] C2D2E2F2 | 
[V:2] z8 | 
[V:3] e2f2e2c2 | 
[V:4] E2A3GA2 | 
[V:5] z8 | 
[V:6] z8 | 
[V:7] A,,8 | 
[V:1] G8 | 
[V:2] z8 | 
[V:3] d2G2d4 | 
[V:4] D8 | 
[V:5] z8 | 
[V:6] z8 | 
[V:7] B,,8 | 
[V:1] C4C2E2- | 
[V:2] z8 | 
[V:3] e8 | 
[V:4] z4A4 | 
[V:5] z8 | 
[V:6] z8 | 
[V:7] A,,8 | 
[V:1] E2D2C2E2- | 
[V:2] z8 | 
[V:3] z4z2c2- | 
[V:4] B4A3G | 
[V:5] z8 | 
[V:6] z8 | 
[V:7] G,,4A,,4 | 
[V:1] E2D2C2E2- | 
[V:2] z8 | 
[V:3] c2B2A2c2- | 
[V:4] EFG2C4 | 
[V:5] z8 | 
[V:6] z8 | 
[V:7] G,,4A,,4 | 
[V:1] EFG2C4 | 
[V:2] z8 | 
[V:3] c2B2A4 | 
[V:4] G4E2A2- | 
[V:5] z8 | 
[V:6] z8 | 
[V:7] G,,4A,,4 | 
[V:1] D8 | 
[V:2] z8 | 
[V:3] z4D4 | 
[V:4] A2^G^F^G4 | 
[V:5] z8 | 
[V:6] z8 | 
[V:7] B,,8 | 
[V:1] C4z4 | 
[V:2] z8 | 
[V:3] E4E2F2- | 
[V:4] A8- | 
[V:5] z8 | 
[V:6] z8 | 
[V:7] A,,3B,,C,2D,2- | 
[V:1] z4D4 | 
[V:2] z8 | 
[V:3] FEFEF2ED | 
[V:4] A8 | 
[V:5] z8 | 
[V:6] z8 | 
[V:7] D,C,D,C,D,2C,B,, | 
[V:1] E4E2F2- | 
[V:2] z8 | 
[V:3] C4G2A2- | 
[V:4] z8 | 
[V:5] z8 | 
[V:6] z8 | 
[V:7] A,,4z4 | 
[V:1] FEFEF2ED | 
[V:2] z8 | 
[V:3] AGAGA2GF | 
[V:4] z8 | 
[V:5] z8 | 
[V:6] z8 | 
[V:7] z8 | 
[V:1] CDEFG2A2- | 
[V:2] z8 | 
[V:3] E4z4 | 
[V:4] G3AB2c2- | 
[V:5] z8 | 
[V:6] z8 | 
[V:7] z8 | 
[V:1] AGAGA2GF | 
[V:2] z8 | 
[V:3] z8 | 
[V:4] cBcBc2BA | 
[V:5] z8 | 
[V:6] z8 | 
[V:7] z8 | 
[V:1] E8- | 
[V:2] z8 | 
[V:3] z8 | 
[V:4] G4z2C2 | 
[V:5] z8 | 
[V:6] z8 | 
[V:7] z4E,4 | 
[V:1] E8 | 
[V:2] z8 | 
[V:3] z8 | 
[V:4] G3AB2c2- | 
[V:5] z8 | 
[V:6] z8 | 
[V:7] E,3F,G,2A,2- | 
[V:1] z4E4 | 
[V:2] z8 | 
[V:3] z4c3d | 
[V:4] cBcBc2BA | 
[V:5] z8 | 
[V:6] z8 | 
[V:7] A,G,A,G,A,2G,F, | 
[V:1] G2A4G2 | 
[V:2] z8 | 
[V:3] e2f4e2 | 
[V:4] G2F2G4 | 
[V:5] z8 | 
[V:6] z8 | 
[V:7] E,2D,2C,4 | 
[V:1] A3GAGA2- | 
[V:2] z8 | 
[V:3] f3efef2- | 
[V:4] z8 | 
[V:5] z8 | 
[V:6] z8 | 
[V:7] F,,4z4 | 
[V:1] A2GFE4 | 
[V:2] z8 | 
[V:3] f2edc4- | 
[V:4] z4A4 | 
[V:5] z8 | 
[V:6] z8 | 
[V:7] z4A,,4 | 
[V:1] z4E4 | 
[V:2] z8 | 
[V:3] c8 | 
[V:4] A4A4 | 
[V:5] z8 | 
[V:6] z8 | 
[V:7] A,,4A,,4 | 
[V:1] F3EFEF2- | 
[V:2] z8 | 
[V:3] d4A4 | 
[V:4] A8- | 
[V:5] z8 | 
[V:6] z8 | 
[V:7] D,3C,D,C,D,2- | 
[V:1] F2EDC4 | 
[V:2] z8 | 
[V:3] z4e4 | 
[V:4] A8 | 
[V:5] z8 | 
[V:6] z8 | 
[V:7] D,2C,B,,A,,2A,,2 | 
[V:1] z8 | 
[V:2] z8 | 
[V:3] f3efef2- | 
[V:4] z4A4 | 
[V:5] z8 | 
[V:6] z8 | 
[V:7] D,3C,D,C,D,2- | 
[V:1] z8 | 
[V:2] z8 | 
[V:3] f2edc3A | 
[V:4] A4F4 | 
[V:5] z8 | 
[V:6] z8 | 
[V:7] D,2C,B,,A,,4 | 
[V:1] z2C2D4 | 
[V:2] z8 | 
[V:3] B2c4B2 | 
[V:4] G8- | 
[V:5] z8 | 
[V:6] z8 | 
[V:7] G,,2C,2G,,4 | 
[V:1] E3FGFG2- | 
[V:2] z8 | 
[V:3] c4C4- | 
[V:4] G8- | 
[V:5] z8 | 
[V:6] z8 | 
[V:7] C,3D,E,D,E,2- | 
[V:1] G2FED4 | 
[V:2] z8 | 
[V:3] C4D4 | 
[V:4] G8 | 
[V:5] z8 | 
[V:6] z8 | 
[V:7] E,2D,C,B,,4 | 
[V:1] C2F2E2A2- | 
[V:2] z8 | 
[V:3] E2F2G2F2- | 
[V:4] A3BcBc2- | 
[V:5] z8 | 
[V:6] z8 | 
[V:7] A,,2D,2C,2F,,2- | 
[V:1] AGF4E2 | 
[V:2] z8 | 
[V:3] Fcc3BAG | 
[V:4] c2BAG4 | 
[V:5] z8 | 
[V:6] z8 | 
[V:7] F,,G,,A,,B,,C,4 | 
[V:1] F8 ||  
[V:2] z8 ||  
[V:3] A8 ||  
[V:4] F8 ||  
[V:5] z8 ||  
[V:6] z8 ||  
[V:7] F,,8 ||  
[V:1]  [K:F] [K:clef=treble][M:3/1]z12 | 
[V:2]  [K:F] [K:clef=treble][M:3/1]z12 | 
[V:3]  [K:F] [K:clef=treble][M:3/1]z12 | 
[V:4]  [K:F] [K:clef=treble-8][M:3/1]F8E4 | 
[V:5]  [K:F] [K:clef=treble-8][M:3/1]z12 | 
[V:6]  [K:F] [K:clef=bass][M:3/1]C,8=B,,4 | 
[V:7]  [K:F] [K:clef=bass][M:3/1]F,,8G,,4 | 
[V:1] z12 | 
[V:2] z12 | 
[V:3] z12 | 
[V:4] F8G4 | 
[V:5] z12 | 
[V:6] C,4D,4G,,4 | 
[V:7] A,,4B,,8 | 
[V:1] z12 | 
[V:2] z12 | 
[V:3] z12 | 
[V:4] F4G4F4 | 
[V:5] z12 | 
[V:6] D,4G,,4D,4 | 
[V:7] B,,8B,,4 | 
[V:1] z12 | 
[V:2] z12 | 
[V:3] z12 | 
[V:4] c6=B2=B4 | 
[V:5] z12 | 
[V:6] C,8z4 | 
[V:7] A,,6F,,2G,,4 | 
[V:1] z12 | 
[V:2] z12 | 
[V:3] z12 | 
[V:4] A8G4 | 
[V:5] z12 | 
[V:6] z4z4D,4 | 
[V:7] A,,4B,,8 | 
[V:1] z12 | 
[V:2] z12 | 
[V:3] z12 | 
[V:4] A12 | 
[V:5] z12 | 
[V:6] E,4F,6E,2 | 
[V:7] A,,8D,4 | 
[V:1] z12 | 
[V:2] z12 | 
[V:3] z12 | 
[V:4] z4z4A4 | 
[V:5] z12 | 
[V:6] C,4D,6E,2 | 
[V:7] E,4F,6E,2 | 
[V:1] z12 | 
[V:2] z12 | 
[V:3] z12 | 
[V:4] =B4c6=B2 | 
[V:5] z12 | 
[V:6] F,4G,6F,2 | 
[V:7] D,4C,6D,2 | 
[V:1] z12 | 
[V:2] z12 | 
[V:3] z12 | 
[V:4] G4A4c4 | 
[V:5] z12 | 
[V:6] D,4E,4A,4 | 
[V:7] B,,4A,,8 | 
[V:1] z12 | 
[V:2] z12 | 
[V:3] z12 | 
[V:4] d4e6d2 | 
[V:5] z12 | 
[V:6] F,4G,6F,2 | 
[V:7] D,4C,6D,2 | 
[V:1] z12 | 
[V:2] z12 | 
[V:3] z12 | 
[V:4] d8^c4 | 
[V:5] z12 | 
[V:6] E,2D,2E,8 | 
[V:7] B,,4A,,8 | 
[V:1] z12 | 
[V:2] z12 | 
[V:3] z12 | 
[V:4] d4A4d4 | 
[V:5] z12 | 
[V:6] D,8z4 | 
[V:7] z12 | 
[V:1] z12 | 
[V:2] z12 | 
[V:3] z12 | 
[V:4] c4=B4c4 | 
[V:5] z12 | 
[V:6] A,4E,4A,4 | 
[V:7] z12 | 
[V:1] z12 | 
[V:2] z12 | 
[V:3] z12 | 
[V:4] d4c2=B2A4 | 
[V:5] z12 | 
[V:6] D,4E,4F,4 | 
[V:7] D,4A,,4D,4 | 
[V:1] z12 | 
[V:2] z12 | 
[V:3] z12 | 
[V:4] G4z4z4 | 
[V:5] z12 | 
[V:6] G,4F,2E,2D,4 | 
[V:7] G,,4A,,4B,,4 | 
[V:1] z12 | 
[V:2] z12 | 
[V:3] z12 | 
[V:4] G8G4 | 
[V:5] z12 | 
[V:6] C,4D,4E,4 | 
[V:7] C,4B,,2A,,2G,,4 | 
[V:1] z12 | 
[V:2] z12 | 
[V:3] z12 | 
[V:4] A4B6A2 | 
[V:5] z12 | 
[V:6] F,4D,4F,4 | 
[V:7] F,,4G,,4A,,4- | 
[V:1] z12 | 
[V:2] z12 | 
[V:3] z12 | 
[V:4] A8G4 | 
[V:5] z12 | 
[V:6] E,4D,8 | 
[V:7] A,,4B,,8 | 
[V:1] [M:2/1]z8 | 
[V:2] [M:2/1]z8 | 
[V:3] [M:2/1]z8 | 
[V:4] [M:2/1]A8 | 
[V:5] [M:2/1]z8 | 
[V:6] [M:2/1]E,4z2F,2- | 
[V:7] [M:2/1]A,,4z2D,2- | 
[V:1] z8 | 
[V:2] z8 | 
[V:3] z8 | 
[V:4] z4A4- | 
[V:5] z8 | 
[V:6] F,2E,2F,2E,2- | 
[V:7] D,2C,2D,2C,2 | 
[V:1] z8 | 
[V:2] z8 | 
[V:3] z8 | 
[V:4] A4A4 | 
[V:5] z8 | 
[V:6] E,2D,2E,2D,2- | 
[V:7] D,4A,,2F,2- | 
[V:1] z8 | 
[V:2] z8 | 
[V:3] z8 | 
[V:4] A8- | 
[V:5] z8 | 
[V:6] D,2C,2D,2C,2 | 
[V:7] F,2E,2F,2E,2- | 
[V:1] z8 | 
[V:2] z8 | 
[V:3] z8 | 
[V:4] A8 | 
[V:5] z8 | 
[V:6] D,4A,,4 | 
[V:7] E,2D,2E,4 | 
[V:1] z8 | 
[V:2] z8 | 
[V:3] z8 | 
[V:4] z4A4 | 
[V:5] z8 | 
[V:6] E,4z2A,2- | 
[V:7] A,,8 | 
[V:1] z8 | 
[V:2] z8 | 
[V:3] z8 | 
[V:4] =B4A2=B2 | 
[V:5] z8 | 
[V:6] A,2G,2A,2G,2- | 
[V:7] z2E,2F,2E,2 | 
[V:1] z8 | 
[V:2] z8 | 
[V:3] z8 | 
[V:4] A4=B2A2 | 
[V:5] z8 | 
[V:6] G,2F,2G,2F,2 | 
[V:7] F,2D,2z2D,2 | 
[V:1] z8 | 
[V:2] z8 | 
[V:3] z8 | 
[V:4] =B2A2G4 | 
[V:5] z8 | 
[V:6] G,2F,4E,2 | 
[V:7] G,,2A,,2B,,2C,2 | 
[V:1] z8 | 
[V:2] z8 | 
[V:3] z8 | 
[V:4] z2A4G2 | 
[V:5] z8 | 
[V:6] F,4C,4 | 
[V:7] F,,2F,4E,2 | 
[V:1] z8 | 
[V:2] z8 | 
[V:3] z8 | 
[V:4] A2G4F2 | 
[V:5] z8 | 
[V:6] z2D,4C,2 | 
[V:7] F,2B,,4A,,2 | 
[V:1] z8 | 
[V:2] z8 | 
[V:3] z8 | 
[V:4] G2F4E2 | 
[V:5] z8 | 
[V:6] D,2C,4=B,,2 | 
[V:7] B,,A,,G,,F,,G,,4 | 
[V:1] z8 | 
[V:2] z8 | 
[V:3] z8 | 
[V:4] F4c4 | 
[V:5] z8 | 
[V:6] C,8 | 
[V:7] F,,8 | 
[V:1] z8 | 
[V:2] z8 | 
[V:3] z8 | 
[V:4] B2A4GF | 
[V:5] z8 | 
[V:6] z4F,4 | 
[V:7] z8 | 
[V:1] z8 | 
[V:2] z8 | 
[V:3] z8 | 
[V:4] G2F4ED | 
[V:5] z8 | 
[V:6] E,2D,4C,=B,, | 
[V:7] z8 | 
[V:1] z8 | 
[V:2] z8 | 
[V:3] z8 | 
[V:4] E2D4G2 | 
[V:5] z8 | 
[V:6] C,2B,,4A,,G,, | 
[V:7] z4D,4 | 
[V:1] z8 | 
[V:2] z8 | 
[V:3] z8 | 
[V:4] F2G3AB2 | 
[V:5] z8 | 
[V:6] A,,2G,,4G,2 | 
[V:7] C,2B,,4A,,G,, | 
[V:1] z8 | 
[V:2] z8 | 
[V:3] z8 | 
[V:4] A2B2G4 | 
[V:5] z8 | 
[V:6] F,2G,4F,E, | 
[V:7] A,,2G,,4C,2- | 
[V:1] z8 | 
[V:2] z8 | 
[V:3] z8 | 
[V:4] z8 | 
[V:5] z8 | 
[V:6] D,4C,2F,2- | 
[V:7] C,2B,,2C,2A,,2 | 
[V:1] z4z4 | 
[V:2] z4z4 | 
[V:3] z4z4 | 
[V:4] G4A4 | 
[V:5] z4z4 | 
[V:6] F,2E,2F,4 | 
[V:7] G,,4F,,4- | 
[V:1] z4z4 | 
[V:2] z4z4 | 
[V:3] z4z4 | 
[V:4] A4G2A2- | 
[V:5] z4z4 | 
[V:6] z2F,2E,2F,2- | 
[V:7] F,,4z4 | 
[V:1] z4z4 | 
[V:2] z4z4 | 
[V:3] z4z4 | 
[V:4] A2GFG4 | 
[V:5] z4z4 | 
[V:6] F,2E,D,E,4 | 
[V:7] F,,4C,4 | 
[V:1] z4z4 | 
[V:2] z4z4 | 
[V:3] z4z4 | 
[V:4] z2F2E2F2- | 
[V:5] z4z4 | 
[V:6] z2A,2G,2A,2- | 
[V:7] z2F,,2C,2F,,2 | 
[V:1] z4z4 | 
[V:2] z4z4 | 
[V:3] z4z4 | 
[V:4] F2EDE4 | 
[V:5] z4z4 | 
[V:6] A,2G,F,G,4 | 
[V:7] F,4C,4 | 
[V:1] z4z4 | 
[V:2] z4z4 | 
[V:3] z4z4 | 
[V:4] z2E2F2E2 | 
[V:5] z4z4 | 
[V:6] z2G,2A,2G,2 | 
[V:7] z2C,2F,,2C,2 | 
[V:1] z4z4 | 
[V:2] z4z4 | 
[V:3] z4z4 | 
[V:4] F2G2A2G2 | 
[V:5] z4z4 | 
[V:6] A,2E,2C,2D,2 | 
[V:7] F,,2C,2A,,2B,,2 | 
[V:1] z4z4 | 
[V:2] z4z4 | 
[V:3] z4z4 | 
[V:4] A2=B2c3=B | 
[V:5] z4z4 | 
[V:6] E,2F,2G,4 | 
[V:7] C,2D,2C,4- | 
[V:1] z4z4 | 
[V:2] z4z4 | 
[V:3] z4z4 | 
[V:4] AGA4GF | 
[V:5] z4z4 | 
[V:6] E,4A,,4 | 
[V:7] C,8- | 
[V:1] z4z4 | 
[V:2] z4z4 | 
[V:3] z4z4 | 
[V:4] G2c3=BAG | 
[V:5] z4z4 | 
[V:6] E,4z2E,2- | 
[V:7] C,4C,3B,, | 
[V:1] z4z4 | 
[V:2] z4z4 | 
[V:3] z4z4 | 
[V:4] A2GFE2F2- | 
[V:5] z4z4 | 
[V:6] E,D,C,4B,,A,, | 
[V:7] A,,G,,A,,4G,,F,, | 
[V:1] z4z4 | 
[V:2] z4z4 | 
[V:3] z4z4 | 
[V:4] F2E2F4- | 
[V:5] z4z4 | 
[V:6] B,,3A,,C,2F,2- | 
[V:7] G,,4F,,3G,, | 
[V:1] z4z4 | 
[V:2] z4z4 | 
[V:3] z4z4 | 
[V:4] F8- | 
[V:5] z4z4 | 
[V:6] F,E,D,4C,2- | 
[V:7] A,,2B,,4A,,2 | 
[V:1] z4z4 ||  
[V:2] z4z4 ||  
[V:3] z4z4 ||  
[V:4] F8 ||  
[V:5] z4z4 ||  
[V:6] C,2B,,2C,4 ||  
[V:7] B,,4F,,4 ||  
[V:1]  [K:F] [K:clef=treble][M:4/2]A4A4 | 
[V:2]  [K:F] [K:clef=treble][M:4/2]z8 | 
[V:3]  [K:F] [K:clef=treble-8][M:4/2]F8 | 
[V:4]  [K:F] [K:clef=treble-8][M:4/2]F4C4 | 
[V:5]  [K:F] [K:clef=treble-8][M:4/2]c4c4 | 
[V:6]  [K:F] [K:clef=bass][M:4/2]z8 | 
[V:7]  [K:F] [K:clef=bass][M:4/2]F,,4A,,4 | 
[V:1] =B4c4- | 
[V:2] z8 | 
[V:3] G4A3G | 
[V:4] D3EFGA2- | 
[V:5] =B4A4- | 
[V:6] z8 | 
[V:7] G,,4F,,4 | 
[V:1] c2=BAB4 | 
[V:2] z8 | 
[V:3] E2F2G4 | 
[V:4] AGF4E2 | 
[V:5] A2=Bcd2G2 | 
[V:6] z8 | 
[V:7] A,,4G,,4 | 
[V:1] A2c3=BA2 | 
[V:2] z8 | 
[V:3] C4z4 | 
[V:4] F2A3GF2 | 
[V:5] A3=Bc2d2 | 
[V:6] z8 | 
[V:7] F,,8 | 
[V:1] G2A3GF2 | 
[V:2] z8 | 
[V:3] z2c3=BA2 | 
[V:4] E2F4F2 | 
[V:5] e2A3=Bcd | 
[V:6] z8 | 
[V:7] z4F,4 | 
[V:1] E2A,2A4 | 
[V:2] z8 | 
[V:3] G2A3GF2 | 
[V:4] G2F3GA=B | 
[V:5] e2f2c4 | 
[V:6] z8 | 
[V:7] C,2F,4F,2 | 
[V:1] G6FE | 
[V:2] z8 | 
[V:3] E8 | 
[V:4] c3=BG4 | 
[V:5] z2G4c2- | 
[V:6] z8 | 
[V:7] C,3D,E,2C,2 | 
[V:1] D4C4- | 
[V:2] z8 | 
[V:3] z8 | 
[V:4] z4G4 | 
[V:5] c2=B2c4 | 
[V:6] z8 | 
[V:7] G,4C,4 | 
[V:1] C4z4 | 
[V:2] z8 | 
[V:3] C3DE2F2- | 
[V:4] A6GF | 
[V:5] e4c4 | 
[V:6] z8 | 
[V:7] A,,2C,4B,,A,, | 
[V:1] G4A4- | 
[V:2] z8 | 
[V:3] F2E2F4- | 
[V:4] G4c4 | 
[V:5] B4A4 | 
[V:6] z8 | 
[V:7] G,,4F,,4- | 
[V:1] A2GFE2F2 | 
[V:2] z8 | 
[V:3] F2EDC2D2 | 
[V:4] A2c4=BA | 
[V:5] F2A4GF | 
[V:6] z8 | 
[V:7] F,,4z4 | 
[V:1] G4C2F2 | 
[V:2] z8 | 
[V:3] E4z2A,2- | 
[V:4] G4A4- | 
[V:5] E3DF2c2- | 
[V:6] z8 | 
[V:7] G,,4F,,3G,, | 
[V:1] E2F2G2c2 | 
[V:2] z8 | 
[V:3] A,=B,CDE3F | 
[V:4] A4z4 | 
[V:5] c=BA2G4 | 
[V:6] z8 | 
[V:7] A,,2F,,2C,3D, | 
[V:1] =B2c2d4 | 
[V:2] z8 | 
[V:3] G8 | 
[V:4] z8 | 
[V:5] z2c2=B3c | 
[V:6] z8 | 
[V:7] E,2C,2G,4 | 
[V:1] z4d4- | 
[V:2] z8 | 
[V:3] z2G4FE | 
[V:4] z8 | 
[V:5] d8- | 
[V:6] z8 | 
[V:7] G,,3A,,B,,2G,,2 | 
[V:1] d2c=BA4 | 
[V:2] z8 | 
[V:3] D2G4F2 | 
[V:4] A4A2A2 | 
[V:5] d8 | 
[V:6] z8 | 
[V:7] D,8 | 
[V:1] z2G4FE | 
[V:2] z8 | 
[V:3] G2=B4AG | 
[V:4] =B4G2=B2- | 
[V:5] z4d4- | 
[V:6] z8 | 
[V:7] G,,8 | 
[V:1] D2G4F2 | 
[V:2] z8 | 
[V:3] F2G2A4 | 
[V:4] BA=B2A4 | 
[V:5] d4d4 | 
[V:6] z8 | 
[V:7] z4D,4 | 
[V:1] G2B3AA2- | 
[V:2] z8 | 
[V:3] z8 | 
[V:4] G4A4 | 
[V:5] B3A/G/F4 | 
[V:6] z8 | 
[V:7] G,,4D,4 | 
[V:1] A2G2F2E2- | 
[V:2] z8 | 
[V:3] z8 | 
[V:4] =B4A2c2- | 
[V:5] z2G2A3=B | 
[V:6] z8 | 
[V:7] z2G,,2D,2C,2 | 
[V:1] E2DC=B,4 | 
[V:2] z8 | 
[V:3] z8 | 
[V:4] c=BA4^G2 | 
[V:5] cde4E2 | 
[V:6] z8 | 
[V:7] A,,4E,4 | 
[V:1] A,8 | 
[V:2] z8 | 
[V:3] z2A4A2 | 
[V:4] A8- | 
[V:5] z2e4e2 | 
[V:6] z8 | 
[V:7] A,,8- | 
[V:1] z4z2c2- | 
[V:2] z8 | 
[V:3] A2A2A4- | 
[V:4] A4z4 | 
[V:5] e2e2c4- | 
[V:6] z8 | 
[V:7] A,,4z2A,,2- | 
[V:1] c2c2c2c2 | 
[V:2] z8 | 
[V:3] A4z4 | 
[V:4] z2A4A2 | 
[V:5] c4z4 | 
[V:6] z8 | 
[V:7] A,,2A,,2A,,2A,,2 | 
[V:1] c4A2c2- | 
[V:2] z8 | 
[V:3] A4A2A2- | 
[V:4] A2A2A4- | 
[V:5] c4c2c2- | 
[V:6] z8 | 
[V:7] A,,8 | 
[V:1] c=BA2G4 | 
[V:2] z8 | 
[V:3] AGF4E2 | 
[V:4] A4z4 | 
[V:5] c2F2G4 | 
[V:6] z8 | 
[V:7] z8 | 
[V:1] A6GF | 
[V:2] z8 | 
[V:3] F3EC4- | 
[V:4] A4A2A2- | 
[V:5] F8 | 
[V:6] z8 | 
[V:7] z4A,,4 | 
[V:1] E4z4 | 
[V:2] z8 | 
[V:3] C4z4 | 
[V:4] A2GFE2F2- | 
[V:5] z8 | 
[V:6] z8 | 
[V:7] A,,2A,,4F,,2 | 
[V:1] G4A2A2- | 
[V:2] z8 | 
[V:3] z4F3E | 
[V:4] F2E2F4- | 
[V:5] z4A3=B | 
[V:6] z8 | 
[V:7] G,,4F,,4- | 
[V:1] A2F2G2G2 | 
[V:2] z8 | 
[V:3] C2F4E2 | 
[V:4] F4z4 | 
[V:5] c2d2c4 | 
[V:6] z8 | 
[V:7] F,,4z4 | 
[V:1] F4G2A2- | 
[V:2] z8 | 
[V:3] F4z4 | 
[V:4] A4G2F2- | 
[V:5] c8- | 
[V:6] z8 | 
[V:7] z2F,2E,2F,2 | 
[V:1] AFG2F2A2 | 
[V:2] z8 | 
[V:3] z4F4 | 
[V:4] F2E2F2c2 | 
[V:5] c8 | 
[V:6] z8 | 
[V:7] C,4F,,3A,, | 
[V:1] =B2c3AB2 | 
[V:2] z8 | 
[V:3] G2A3FG2 | 
[V:4] =B2A4G2 | 
[V:5] z8 | 
[V:6] z8 | 
[V:7] G,,2F,,4E,,2 | 
[V:1] A4G2A2- | 
[V:2] z8 | 
[V:3] F2A2=B2c2- | 
[V:4] A3FG2F2- | 
[V:5] c4=B2A2- | 
[V:6] z8 | 
[V:7] F,,4z4 | 
[V:1] AFG2F2c2 | 
[V:2] z8 | 
[V:3] cA=B2A2A,2 | 
[V:4] F2E2F2A2 | 
[V:5] A2G2A4 | 
[V:6] z8 | 
[V:7] z4F,,4 | 
[V:1] =B2A4G2 | 
[V:2] z8 | 
[V:3] =B,2C3A,=B,2 | 
[V:4] G2F4E2 | 
[V:5] z8 | 
[V:6] z8 | 
[V:7] G,,2A,,3F,,G,,2 | 
[V:1] A2G2F2G2- | 
[V:2] z8 | 
[V:3] A,2E2D2C2- | 
[V:4] F2E2F2C2 | 
[V:5] c3=BA2G2 | 
[V:6] z8 | 
[V:7] F,,2C,2D,2E,2- | 
[V:1] GCF4E2 | 
[V:2] z8 | 
[V:3] CA,=B,2C4 | 
[V:4] F4G4 | 
[V:5] A2D2E2C2 | 
[V:6] z8 | 
[V:7] E,C,D,2C,4 | 
[V:1] F8 |]  
[V:2] z8 |]  
[V:3] C8 |]  
[V:4] F8 |]  
[V:5] D4C4 |]  
[V:6] z8 |]  
[V:7] F,,8 |]  



